X:1
T:Palgrave, 77.77.77
T:Palgrave, 77.77.77
T:Hanson de la Haye Blackith, 1893
T:Public Domain Courtesy of the Cyber Hymnal™
C:Hanson de la Haye Blackith, 1893
Z:Public Domain
Z:Courtesy of the Cyber Hymnal™
%%score ( 1 2 ) ( 3 4 )
L:1/8
Q:1/4=113
M:4/4
K:Db
V:1 treble 
V:2 treble 
V:3 bass 
V:4 bass 
V:1
 [FA]2 [Fd]2 [Gc]2 [GB]2 | [FA]2 [EA]2 [DA]4 | [DB]2 [EB]2 [FA]2 F2 | [EG]2 [DF]2 [CE]4 | %4
 [FA]2 [Fd]2 [Gc]2 [GB]2 | [FA]2 [EA]2 [DA]4 | [DB]2 [CB]2 [DA]2 [=DB]2 | [Ec]2 [DB]2 [CA]4 | %8
 [EG]2 [DF]2 [CF]2 [CE]2 | D2 [EG]2 F4 | [B,G]2 (FE) [DA]2 D2 | [DF]2 [CE]2 D4 |] %12
V:2
 x8 | x8 | x6 F2 | x8 | x8 | x8 | x8 | x8 | x8 | D2 (D2 _C2) x2 | x2 C2 x D2 x | x4 D4 |] %12
V:3
 [D,D]2 [D,A,]2 [D,B,]2 [D,C]2 | [D,D]2 [E,C]2 [F,D]4 | [G,B,]2 [G,C]2 [F,D]2 [D,A,]2 | %3
 [C,A,]2 [D,A,]2 A,4 | [D,A,]2 [D,A,]2 [D,B,]2 [D,C]2 | [D,D]2 [E,C]2 [F,D]4 | %6
 G,2 [E,G,]2 [F,A,]2 [F,A,]2 | [E,A,]2 [E,=G,]2 [A,,A,]4 | [C,A,]2 [D,A,]2 [G,A,]2 [G,A,]2 | %9
 [F,A,]2 [C,A,]2 A,4 | [E,G,]2 [E,G,]2 [F,A,]2 [G,B,]2 | A,2 [A,,G,]2 [D,F,]4 |] %12
V:4
 x8 | x8 | x8 | x4 A,4 | x8 | x8 | G,2 x6 | x8 | x8 | x4 (D,2 =D,2) | x8 | A,2 x6 |] %12

